X:1
T:Title
%%score { 1 | 2 }
L:1/8
Q:1/4=100
M:4/4
K:Ab
V:1 treble nm="Grand Piano"
V:2 bass 
V:1
 [Ec]>[DB] [CA]>[DB] [Ec]>[DB] [CA]>[DB] | [Ec]2 [CE]2 [CF]3 [CE] | [CA]3 [CE] c3 A | e6 z2 | %4
w: Wendell~P.~Loveless * * * * * * *||||
 [Ec]>[DB] [CA]>[DB] [Ec]>[DB] [CA]>[DB] | [Ec]2 [CE]2 [DF]2 [FA][=EB] | c2 [Ac]2 [Ae]2 [Ge]2 | %7
w: |||
 [CA]6 z2 |] %8
w: |
V:2
 [A,,A,]>[A,,A,] [A,,A,]>[A,,A,] [A,,A,]>[A,,A,] [A,,A,]>[A,,A,] | %1
 [A,,A,]2 [A,,A,]2 [A,,A,]3 [A,,A,] | [A,,E,]3 [A,,E,] [A,E]3 [A,CE] | [E,DE]6 z2 | %4
 [A,,A,]>[A,,A,] [A,,A,]>[A,,A,] [A,,A,]>[A,,A,] [A,,A,]>[A,,A,] | %5
 [A,,A,]2 [A,,A,]2 [D,A,]2 [D,A,][D,A,] | [A,E]2 [F,C]2 [E,C]2 [E,D]2 | [A,,A,]6 z2 |] %8

